X:35
T:Josefin's Dopvals (F whistle)
M:3/4
L:1/8
C:Roger Talroth
S:Väsen
R:Vals
O:Swedish
K:F
"F"C2F2G2 | A2c2B2 | A2G2F2 | C4D2 | "Bb"B,3B,B,2 | D2F2E2 | D6 | "C"C6 | "F"C2F2G2 |
A2c2B2 | A2G2F2 | C4D2 | "Bb"B,3B,B,2 | "(F)"C2E2F2 |1 "C"G6- | G6 :|2 "C"G6- | G2 ||
|: A2B2 | "F"c2A2c2 | f4e2 | "Bb"d6 | "F"c6 | "Bb"B2d2c2 | B2A2G2 | "F"A3BA2 | "C"G2A2B2 |
"F"c2A2c2 | f4e2 | "Bb"d6 | "F"c6 | "Bb"B2d2c2 | B2A2G2 | "F"A3BA2 | "C"G2A2B2 |
"F"A2G2F2 | "C"E4F2 | "Bb"F6 | B,2C2B,2 | "F"A,2C2F2 | "C"E3DE2 | "F"F6- | F2 :|
